X: 2014
T: the APPLE TREE
C: Carl Volti
R: Reel.
%R: reel
B: James Kerr "Merry Melodies" v.2 p.5 #14
Z: 2016 John Chambers <jc:trillian.mit.edu>
N: The final repeat symbol may not be needed.
M: C
L: 1/8
K: A
|:\
A2a2 fedc | Aaga fedc |\
[1 Bcde fBBc | Bcde fefa :|\
[2 Bcde fBBa | gefg a2e2 ||
|:\
(EA)AB (cB)AF | (EA)AB (cB)AG |\
(FB)Bc (dc)BA |[1 GABc defe :|[2 GEFG A2e2 :|
